X: 1590
T: Pınar Başı Burma Burma
C: (Anonim)
O: Turkey
F: http://compmusic.upf.edu/node/140
N: saba--turku--nimsofyan--pinar_basi--
N: makam= saba
N: form= turku
N: usul= nimsofyan = 2/4
M: 2/4
L: 1/16
K: C _2/4B _3/4d  
Q: 1/4=72
%%MIDI tuningsystem comma53
GG2c .c.c3  | c2c2 c2c2  | d4 c4  | B4 A4  | \
w:  Pı nar  *  ba şı   |  bur ma  bur ma    |  Yâr  yâr   |  yâr  yâr   | 
A3G A2B2  | c8  | e3e e2e2  | 
w:  yâr  *  yâr_ a  |  man    |  Yaz  ge lin ce   | 
ee2f e=ddc  | z=d2e dccB  | zc2=d cBBA  | 
w:  ö ter  *  tur *  na    |  Ley *  lim   |  ley *  lim   | 
zB2=d cBBA  | A8  | e3e e2e2  | ee2f e=ddc  | \
w:  ley *  lim_ a  |  man    |  Yaz  ge lin ce   |  ö ter  *  tur *  na    | 
z=d2e dccB  | 
w:  Ley *  lim   | 
zc2=d cBBA  | zB2=d cBBA  | A8  | c2c2 cBBA  | 
w:  ley *  lim   |  ley *  lim_ a  |  man    |  Ça yır da   | 
G2A2 AA3  | c2c2 cBBA  | G2A2 AA3  | c2c2 cBBA  | \
w:  bul dum  se ni    |  El le re   |  ver mem  se ni    |  Ken di me   | 
G2A2 =dd3  | 
w:  al dım  se ni    | 
c2c2 cBBA  | G2A2 AA3  | c2c2 cBBA  | G2A2 AA3  | \
w:  Sî ne me   |  sar dım  se ni    |  Ça yır da   |  bul dum  se ni    | 
c2c2 cBBA  | 
w:  El le re   | 
G2A2 AA3  | c2c2 cBBA  | G2A2 =dd3  | c2c2 cBBA  | \
w:  ver mem  se ni    |  Ken di me   |  al dım  se ni    |  Sî ne me   | 
G2A2 AA3  | 
w:  sar dım  se ni    | 
GG2c .c.c3  | c2c2 c2c2  | d4 c4  | B4 A4  | \
w:  Pı nar  *  ba şı   |  bur ma  bur ma    |  Yâr  yâr   |  yâr  yâr   | 
A3G A2B2  | c8  | e3e e2e2  | 
w:  yâr  *  yâr_ a  |  man    |  Yaz  ge lin ce   | 
ee2f e=ddc  | z=d2e dccB  | zc2=d cBBA  | 
w:  ö ter  *  tur *  na    |  Ley *  lim   |  ley *  lim   | 
zB2=d cBBA  | A8  | e3e e2e2  | ee2f e=ddc  | \
w:  ley *  lim_ a  |  man    |  Yaz  ge lin ce   |  ö ter  *  tur *  na    | 
z=d2e dccB  | 
w:  Ley *  lim   | 
zc2=d cBBA  | zB2=d cBBA  | A8  | c2c2 cBBA  | 
w:  ley *  lim   |  ley *  lim_ a  |  man    |  Ça yır da   | 
G2A2 AA3  | c2c2 cBBA  | G2A2 AA3  | c2c2 cBBA  | \
w:  bul dum  se ni    |  El le re   |  ver mem  se ni    |  Ken di me   | 
G2A2 =dd3  | 
w:  al dım  se ni    | 
c2c2 cBBA  | G2A2 AA3  | c2c2 cBBA  | G2A2 AA3  | \
w:  Sî ne me   |  sar dım  se ni    |  Ça yır da   |  bul dum  se ni    | 
c2c2 cBBA  | 
w:  El le re   | 
G2A2 AA3  | c2c2 cBBA  | G2A2 =dd3  | c2c2 cBBA  | \
w:  ver mem  se ni    |  Ken di me   |  al dım  se ni    |  Sî ne me   | 
G2A2 AA3  | 
w:  sar dım  se ni    | 
|


